X: 182
T:Rory Macleod
M:4/4
R:jig
F:http://blackrosetheband.googlepages.com/ABCTUNES.ABC May 2009
C:Composer: Donald MacLeod
S:Source: Angus Sessions Podcast
K:A
e|:cAA cee|fee faa|cAA cee|fcc cBB|
cAA cee|fee faa|fcc ecB|cAA A2e:||
|:Aee fee|aee fee|cee fee|aee eff|
Aee fee|aee fee|fcc ecB|1 cAA A2e:|2 cAA A3||
|:Acc cdd|dcc cBA|Acc cdd|dcc cBB|
Acc cdd|dcc cBe|fcc ecB|1 cAA A2A:|2 cAA A2=g||
|:faa aff|fee ecc|cBB cff|fee ecc|
faa aff|fee ecc|fcc ecB|1 cAA A2=g:|2 cAA A2A||

